X:430
T: Ich verlang ein' Braut zu werden (5-26), S. 45
N: P0700
O: Lothringen
S: MERKELBACH-PINCK, Angelika: Verklingende Weisen, Bd 5, Kassel 1962]
R: geistliches, religises Lied]
M: 4/4
L: 1/8
K: G
DD | G2A2B2AB | c2B2A2B2 |
c2A2B2G2 | F2G2A2z2 |
d2B2A2G2 | F2G2A2A2 |
d2B2A2G2 | F2E2D2z2 |
G3AGFED | G3AGFED |
G2B2d2B2 | G2B2A2z2 |
G3AGFED | G3AGFED |
G2B2d2B2 | G2A2G2

@@@ Tune index: 7980
